icons/svg/twitter-box.svg

﻿<?xml version="1.0" encoding="utf-8"?>
<!DOCTYPE svg PUBLIC "-//W3C//DTD SVG 1.1//EN" "http://www.w3.org/Graphics/SVG/1.1/DTD/svg11.dtd">
<svg xmlns="http://www.w3.org/2000/svg" xmlns:xlink="http://www.w3.org/1999/xlink" version="1.1" baseProfile="full" width="24" height="24" viewBox="0 0 24.00 24.00" enable-background="new 0 0 24.00 24.00" xml:space="preserve">
	<path fill="#000000" fill-opacity="1" stroke-width="0.2" stroke-linejoin="round" d="M 17.7074,9.32817C 17.6434,13.9472 14.6904,17.1112 10.2824,17.3102C 8.46442,17.3922 7.14542,16.8072 5.99942,16.0782C 7.34342,16.2932 9.00842,15.7562 9.90142,14.9922C 8.58342,14.8632 7.80542,14.1932 7.43742,13.1152C 7.81742,13.1822 8.21842,13.1642 8.58142,13.0862C 7.39342,12.6872 6.54442,11.9532 6.49842,10.4142C 6.83342,10.5662 7.18142,10.7092 7.64242,10.7362C 6.75142,10.2302 6.0961,8.38117 6.84942,7.15617C 8.17042,8.60517 9.75942,9.78517 12.3664,9.94517C 11.7124,7.14817 15.4244,5.63017 16.9744,7.51017C 17.6314,7.38317 18.1634,7.13517 18.6764,6.86317C 18.4664,7.51417 18.0584,7.96717 17.5604,8.33217C 18.1044,8.25817 18.5894,8.12517 18.9994,7.92117C 18.7474,8.45117 18.1864,8.92817 17.7074,9.32817 Z M 19.9994,1.99817L 3.99942,1.99817C 2.89542,1.99817 2.00942,2.89317 2.00942,3.99817L 1.99942,19.9982C 1.99942,21.1022 2.89542,21.9982 3.99942,21.9982L 19.9994,21.9982C 21.1034,21.9982 21.9994,21.1022 21.9994,19.9982L 21.9994,3.99817C 21.9994,2.89317 21.1034,1.99817 19.9994,1.99817 Z "/>
</svg>

<svg xmlns="http://www.w3.org/2000/svg" version="1.1" baseProfile="full" width="24" height="24" viewBox="0 0 24.00 24.00" xml:space="preserve"><path fill="#000" fill-opacity="1" stroke-width=".2" stroke-linejoin="round" d="M17.707 9.328c-.064 4.62-3.017 7.783-7.425 7.982-1.818.082-3.137-.503-4.283-1.232 1.343.215 3.008-.322 3.9-1.086-1.317-.13-2.095-.8-2.463-1.877.38.067.78.05 1.144-.03-1.187-.398-2.036-1.132-2.082-2.67.335.15.683.294 1.144.32-.89-.505-1.546-2.354-.793-3.58 1.32 1.45 2.91 2.63 5.516 2.79-.654-2.797 3.058-4.315 4.608-2.435.657-.127 1.19-.375 1.702-.647-.21.65-.618 1.104-1.116 1.47.544-.075 1.03-.208 1.44-.412-.253.53-.814 1.008-1.293 1.408zM20 1.998H4c-1.105 0-1.99.895-1.99 2l-.01 16c0 1.104.895 2 2 2h16c1.103 0 2-.896 2-2v-16c0-1.105-.897-2-2-2z"/></svg>
